svgs/sharp-regular/jet-fighter-up.svg

<svg xmlns="http://www.w3.org/2000/svg" viewBox="0 0 512 512"><!--! Font Awesome Pro 6.6.0 by @fontawesome - https://fontawesome.com License - https://fontawesome.com/license (Commercial License) Copyright 2024 Fonticons, Inc. --><path d="M248 0L232.8 0l-6.5 13.8-64 136-2.3 4.9 0 5.4 0 42.6L48 272l0-24 0-24L0 224l0 24 0 54.1c-5 4.5-8 11-8 17.9l0 40c0 7.1 3.1 13.5 8 17.9L0 392l0 24 48 0 0-24 0-8 106.6 0-38.2 54.2-4.4 6.2 0 7.6 0 36 0 24 24 0 240 0 24 0 0-24 0-36 0-7.6-4.4-6.2L357.4 384 464 384l0 8 0 24 48 0 0-24 0-14.1c4.9-4.4 8-10.8 8-17.9l0-40c0-6.9-3-13.4-8-17.9l0-54.1 0-24-48 0 0 24 0 24L352 202.6l0-42.6 0-5.4-2.3-4.9-64-136L279.2 0 264 0 248 0zM48 328.4l112-69.3 0 76.9L48 336l0-7.6zm304-69.3l112 69.3 0 7.6-112 0 0-76.9zM208 165.4l48-102 48 102L304 384l0 7.6 4.4 6.2L352 459.6l0 4.4-72 0 0-40 0-24-48 0 0 24 0 40-72 0 0-4.4 43.6-61.8 4.4-6.2 0-7.6 0-218.6z"/></svg>

<svg xmlns="http://www.w3.org/2000/svg" viewBox="0 0 512 512"><!--! Font Awesome Pro 6.5.2 by @fontawesome - https://fontawesome.com License - https://fontawesome.com/license (Commercial License) Copyright 2024 Fonticons, Inc. --><path d="M248 0H232.8l-6.5 13.8-64 136-2.3 4.9V160v42.6L48 272V248 224H0v24 54.1c-5 4.5-8 11-8 17.9v40c0 7.1 3.1 13.5 8 17.9V392v24H48V392v-8H154.6l-38.2 54.2-4.4 6.2V452v36 24h24H376h24V488 452v-7.6l-4.4-6.2L357.4 384H464v8 24h48V392 377.9c4.9-4.4 8-10.8 8-17.9V320c0-6.9-3-13.4-8-17.9V248 224H464v24 24L352 202.6V160v-5.4l-2.3-4.9-64-136L279.2 0H264 248zM48 328.4l112-69.3V336H48v-7.6zm304-69.3l112 69.3V336H352V259.1zM208 165.4l48-102 48 102V384v7.6l4.4 6.2L352 459.6V464H280V424 400H232v24 40H160v-4.4l43.6-61.8 4.4-6.2V384 165.4z"/></svg>
